img/line-mob.svg

<svg width="210" height="534" fill="none" xmlns="http://www.w3.org/2000/svg"><path d="M211.422 143c-6.936 5.79-21.767 21.743-21.536 38.651.289 21.135 3.468 33.585-14.45 36.914-17.917 3.33-36.124 47.916-20.518 59.642 15.605 11.725 33.234 17.95 37.424 46.034 3.352 22.467 14.264 31.558 19.225 33.295" stroke="url(#a)"/><path d="M211.711 149.08c-6.583 5.489-16.609 22.647-16.39 38.676.275 20.036 3.292 31.838-13.715 34.995-17.006 3.156-34.287 45.424-19.475 56.54 14.812 11.116 31.545 17.017 35.522 43.641 3.182 21.299 9.349 29.917 14.058 31.564" stroke="url(#b)"/><path d="M211.711 160.227c-5.859 4.889-12.188 20.464-11.993 34.742.244 17.848.335 28.069-14.802 30.881-15.137 2.812-30.518 40.463-17.334 50.365 13.184 9.901 28.076 15.158 31.617 38.873 2.832 18.973 8.176 31.571 12.367 33.038" stroke="url(#c)"/><path d="M211.711 170.215c-5.067 4.219-8.116 19.962-7.947 32.282.211 15.4-2.134 24.956-15.223 27.382-13.089 2.426-26.389 34.914-14.989 43.458 11.401 8.544 25.706 13.504 28.767 33.967 2.449 16.37 5.768 32.608 9.392 33.874" stroke="url(#d)"/><path d="M211.422 181.651c-4.274 3.551-4.188 17.28-4.046 27.65.178 12.961-4.168 22.552-15.209 24.594-11.041 2.042-22.261 29.386-12.644 36.577 9.616 7.191 23.392 13.529 25.975 30.752 2.065 13.778 3.3 27.887 6.357 28.952" stroke="url(#e)"/><g filter="url(#f)"><path d="M210.994 167.31c-4.223 4.631-4.138 22.535-3.997 36.057.176 16.903-4.119 29.411-15.027 32.073-10.908 2.663-21.992 38.322-12.491 47.7 9.5 9.378 23.111 17.643 25.662 40.104 2.041 17.968 3.261 36.367 6.281 37.756" stroke="url(#g)" stroke-width="50"/></g><path d="M211.567 214.222c.157 11.446-3.162 20.445-12.917 22.248-9.755 1.803-19.667 25.949-11.171 32.299 8.496 6.35 21.806 16.957 24.088 32.165" stroke="url(#h)"/><path d="M211.566 231.159c-1.011 4.343-4.912 7.383-7.703 8.343-8.637 2.968-18.103 23.912-10.283 29.764 7.821 5.852 12.351 7.348 17.986 20.811" stroke="url(#i)"/><path d="M212 238.398c-.755 3.265-3.668 5.55-5.752 6.271-6.449 2.233-13.518 17.979-7.678 22.379 5.839 4.399 9.222 5.524 13.43 15.646" stroke="url(#j)"/><path d="M211.422 245.057c-.532 2.304-2.582 3.918-4.048 4.427-4.538 1.575-9.513 12.691-5.403 15.796 4.109 3.106 6.49 3.9 9.451 11.045" stroke="url(#k)"/><path d="M212 250.268c-.35 1.515-1.698 2.576-2.663 2.91-2.986 1.036-6.258 8.343-3.555 10.385 2.704 2.042 4.27 2.564 6.218 7.261" stroke="url(#l)"/><defs><linearGradient id="a" x1="149" y1="250.268" x2="211.567" y2="250.268" gradientUnits="userSpaceOnUse"><stop stop-color="#E3255E"/><stop offset=".445" stop-color="#FF2323"/><stop offset="1" stop-color="#E2CC00"/></linearGradient><linearGradient id="b" x1="156.514" y1="251.788" x2="211.711" y2="251.788" gradientUnits="userSpaceOnUse"><stop stop-color="#E3255E"/><stop offset=".445" stop-color="#FF2323"/><stop offset="1" stop-color="#E2CC00"/></linearGradient><linearGradient id="c" x1="162.583" y1="254.176" x2="211.711" y2="254.176" gradientUnits="userSpaceOnUse"><stop stop-color="#E3255E"/><stop offset=".445" stop-color="#FF2323"/><stop offset="1" stop-color="#E2CC00"/></linearGradient><linearGradient id="d" x1="169.229" y1="255.696" x2="211.711" y2="255.696" gradientUnits="userSpaceOnUse"><stop stop-color="#E3255E"/><stop offset=".445" stop-color="#FF2323"/><stop offset="1" stop-color="#E2CC00"/></linearGradient><linearGradient id="e" x1="175.876" y1="255.914" x2="211.855" y2="255.914" gradientUnits="userSpaceOnUse"><stop stop-color="#E3255E"/><stop offset=".445" stop-color="#FF2323"/><stop offset="1" stop-color="#E2CC00"/></linearGradient><linearGradient id="g" x1="175.876" y1="264.155" x2="211.422" y2="264.155" gradientUnits="userSpaceOnUse"><stop stop-color="#E3255E"/><stop offset=".445" stop-color="#FF2323"/><stop offset="1" stop-color="#E2CC00"/></linearGradient><linearGradient id="h" x1="184.257" y1="257.578" x2="211.572" y2="257.578" gradientUnits="userSpaceOnUse"><stop stop-color="#E3255E"/><stop offset=".445" stop-color="#FF2323"/><stop offset="1" stop-color="#E2CC00"/></linearGradient><linearGradient id="i" x1="190.667" y1="260.618" x2="211.566" y2="260.618" gradientUnits="userSpaceOnUse"><stop stop-color="#E3255E"/><stop offset=".445" stop-color="#FF2323"/><stop offset="1" stop-color="#E2CC00"/></linearGradient><linearGradient id="j" x1="196.395" y1="260.546" x2="212" y2="260.546" gradientUnits="userSpaceOnUse"><stop stop-color="#E3255E"/><stop offset=".445" stop-color="#FF2323"/><stop offset="1" stop-color="#E2CC00"/></linearGradient><linearGradient id="k" x1="200.44" y1="260.691" x2="211.422" y2="260.691" gradientUnits="userSpaceOnUse"><stop stop-color="#E3255E"/><stop offset=".445" stop-color="#FF2323"/><stop offset="1" stop-color="#E2CC00"/></linearGradient><linearGradient id="l" x1="204.775" y1="260.546" x2="212" y2="260.546" gradientUnits="userSpaceOnUse"><stop stop-color="#E3255E"/><stop offset=".445" stop-color="#FF2323"/><stop offset="1" stop-color="#E2CC00"/></linearGradient><filter id="f" x=".876" y=".466" width="382.803" height="533.246" filterUnits="userSpaceOnUse" color-interpolation-filters="sRGB"><feFlood flood-opacity="0" result="BackgroundImageFix"/><feBlend in="SourceGraphic" in2="BackgroundImageFix" result="shape"/><feGaussianBlur stdDeviation="75" result="effect1_foregroundBlur_299_2018"/></filter></defs></svg>

<svg width="210" height="534" viewBox="0 0 210 534" fill="none" xmlns="http://www.w3.org/2000/svg">
<path d="M211.422 143C204.486 148.79 189.655 164.743 189.886 181.651C190.175 202.786 193.354 215.236 175.436 218.565C157.519 221.895 139.312 266.481 154.918 278.207C170.523 289.932 188.152 296.157 192.342 324.241C195.694 346.708 206.606 355.799 211.567 357.536" stroke="url(#paint0_linear_299_2018)"/>
<path d="M211.711 149.08C205.128 154.569 195.102 171.727 195.321 187.756C195.596 207.792 198.613 219.594 181.606 222.751C164.6 225.907 147.319 268.175 162.131 279.291C176.943 290.407 193.676 296.308 197.653 322.932C200.835 344.231 207.002 352.849 211.711 354.496" stroke="url(#paint1_linear_299_2018)"/>
<path d="M211.711 160.227C205.852 165.116 199.523 180.691 199.718 194.969C199.962 212.817 200.053 223.038 184.916 225.85C169.779 228.662 154.398 266.313 167.582 276.215C180.766 286.116 195.658 291.373 199.199 315.088C202.031 334.061 207.375 346.659 211.566 348.126" stroke="url(#paint2_linear_299_2018)"/>
<path d="M211.711 170.215C206.644 174.434 203.595 190.177 203.764 202.497C203.975 217.897 201.63 227.453 188.541 229.879C175.452 232.305 162.152 264.793 173.552 273.337C184.953 281.881 199.258 286.841 202.319 307.304C204.768 323.674 208.087 339.912 211.711 341.178" stroke="url(#paint3_linear_299_2018)"/>
<path d="M211.422 181.651C207.148 185.202 207.234 198.931 207.376 209.301C207.554 222.262 203.208 231.853 192.167 233.895C181.126 235.937 169.906 263.281 179.523 270.472C189.139 277.663 202.915 284.001 205.498 301.224C207.563 315.002 208.798 329.111 211.855 330.176" stroke="url(#paint4_linear_299_2018)"/>
<g filter="url(#filter0_f_299_2018)">
<path d="M210.994 167.31C206.771 171.941 206.856 189.845 206.997 203.367C207.173 220.27 202.878 232.778 191.97 235.44C181.062 238.103 169.978 273.762 179.479 283.14C188.979 292.518 202.59 300.783 205.141 323.244C207.182 341.212 208.402 359.611 211.422 361" stroke="url(#paint5_linear_299_2018)" stroke-width="50"/>
</g>
<path d="M211.567 214.222C211.724 225.668 208.405 234.667 198.65 236.47C188.895 238.273 178.983 262.419 187.479 268.769C195.975 275.119 209.285 285.726 211.567 300.934" stroke="url(#paint6_linear_299_2018)"/>
<path d="M211.566 231.159C210.555 235.502 206.654 238.542 203.863 239.502C195.226 242.47 185.76 263.414 193.58 269.266C201.401 275.118 205.931 276.614 211.566 290.077" stroke="url(#paint7_linear_299_2018)"/>
<path d="M212 238.398C211.245 241.663 208.332 243.948 206.248 244.669C199.799 246.902 192.73 262.648 198.57 267.048C204.409 271.447 207.792 272.572 212 282.694" stroke="url(#paint8_linear_299_2018)"/>
<path d="M211.422 245.057C210.89 247.361 208.84 248.975 207.374 249.484C202.836 251.059 197.861 262.175 201.971 265.28C206.08 268.386 208.461 269.18 211.422 276.325" stroke="url(#paint9_linear_299_2018)"/>
<path d="M212 250.268C211.65 251.783 210.302 252.844 209.337 253.178C206.351 254.214 203.079 261.521 205.782 263.563C208.486 265.605 210.052 266.127 212 270.824" stroke="url(#paint10_linear_299_2018)"/>
<defs>
<filter id="filter0_f_299_2018" x="0.876129" y="0.465816" width="382.803" height="533.246" filterUnits="userSpaceOnUse" color-interpolation-filters="sRGB">
<feFlood flood-opacity="0" result="BackgroundImageFix"/>
<feBlend mode="normal" in="SourceGraphic" in2="BackgroundImageFix" result="shape"/>
<feGaussianBlur stdDeviation="75" result="effect1_foregroundBlur_299_2018"/>
</filter>
<linearGradient id="paint0_linear_299_2018" x1="149" y1="250.268" x2="211.567" y2="250.268" gradientUnits="userSpaceOnUse">
<stop stop-color="#E3255E"/>
<stop offset="0.445" stop-color="#FF2323"/>
<stop offset="1" stop-color="#E2CC00"/>
</linearGradient>
<linearGradient id="paint1_linear_299_2018" x1="156.514" y1="251.788" x2="211.711" y2="251.788" gradientUnits="userSpaceOnUse">
<stop stop-color="#E3255E"/>
<stop offset="0.445" stop-color="#FF2323"/>
<stop offset="1" stop-color="#E2CC00"/>
</linearGradient>
<linearGradient id="paint2_linear_299_2018" x1="162.583" y1="254.176" x2="211.711" y2="254.176" gradientUnits="userSpaceOnUse">
<stop stop-color="#E3255E"/>
<stop offset="0.445" stop-color="#FF2323"/>
<stop offset="1" stop-color="#E2CC00"/>
</linearGradient>
<linearGradient id="paint3_linear_299_2018" x1="169.229" y1="255.696" x2="211.711" y2="255.696" gradientUnits="userSpaceOnUse">
<stop stop-color="#E3255E"/>
<stop offset="0.445" stop-color="#FF2323"/>
<stop offset="1" stop-color="#E2CC00"/>
</linearGradient>
<linearGradient id="paint4_linear_299_2018" x1="175.876" y1="255.914" x2="211.855" y2="255.914" gradientUnits="userSpaceOnUse">
<stop stop-color="#E3255E"/>
<stop offset="0.445" stop-color="#FF2323"/>
<stop offset="1" stop-color="#E2CC00"/>
</linearGradient>
<linearGradient id="paint5_linear_299_2018" x1="175.876" y1="264.155" x2="211.422" y2="264.155" gradientUnits="userSpaceOnUse">
<stop stop-color="#E3255E"/>
<stop offset="0.445" stop-color="#FF2323"/>
<stop offset="1" stop-color="#E2CC00"/>
</linearGradient>
<linearGradient id="paint6_linear_299_2018" x1="184.257" y1="257.578" x2="211.572" y2="257.578" gradientUnits="userSpaceOnUse">
<stop stop-color="#E3255E"/>
<stop offset="0.445" stop-color="#FF2323"/>
<stop offset="1" stop-color="#E2CC00"/>
</linearGradient>
<linearGradient id="paint7_linear_299_2018" x1="190.667" y1="260.618" x2="211.566" y2="260.618" gradientUnits="userSpaceOnUse">
<stop stop-color="#E3255E"/>
<stop offset="0.445" stop-color="#FF2323"/>
<stop offset="1" stop-color="#E2CC00"/>
</linearGradient>
<linearGradient id="paint8_linear_299_2018" x1="196.395" y1="260.546" x2="212" y2="260.546" gradientUnits="userSpaceOnUse">
<stop stop-color="#E3255E"/>
<stop offset="0.445" stop-color="#FF2323"/>
<stop offset="1" stop-color="#E2CC00"/>
</linearGradient>
<linearGradient id="paint9_linear_299_2018" x1="200.44" y1="260.691" x2="211.422" y2="260.691" gradientUnits="userSpaceOnUse">
<stop stop-color="#E3255E"/>
<stop offset="0.445" stop-color="#FF2323"/>
<stop offset="1" stop-color="#E2CC00"/>
</linearGradient>
<linearGradient id="paint10_linear_299_2018" x1="204.775" y1="260.546" x2="212" y2="260.546" gradientUnits="userSpaceOnUse">
<stop stop-color="#E3255E"/>
<stop offset="0.445" stop-color="#FF2323"/>
<stop offset="1" stop-color="#E2CC00"/>
</linearGradient>
</defs>
</svg>
